public/icons/heavy_machinery_icon.svg

<svg width="330" height="330" viewBox="0 0 330 330" fill="none" xmlns="http://www.w3.org/2000/svg">
<path d="M281.003 146.489C282.46 146.457 283.882 146.45 285.29 146.878C289.601 148.184 293.468 150.959 295.549 155.016C297.559 158.936 297.267 162.134 295.964 166.223C298.834 176.218 302.687 186.005 306.187 195.797C310.016 206.512 313.621 217.397 317.77 227.987C319.372 232.077 323.158 234.774 324.294 239.168C326.293 246.903 323.029 252.586 323.329 259.791C323.459 262.921 325.282 265.705 324.866 268.965C324.404 272.583 322.72 276.419 320.849 279.518C316.256 287.125 308.197 293.671 299.487 295.802C296.491 296.535 293.439 296.672 290.374 296.387C285.97 295.977 264.913 291.702 261.554 289.448C260.207 288.545 259.283 287.419 258.947 285.835C259.206 285.195 259.319 284.595 259.867 284.155C261.942 282.488 263.125 282.093 265.712 282.417L266.257 282.489C277.77 268.504 289.356 254.579 301.013 240.714C295.806 229.009 290.222 217.47 284.942 205.797C282.085 199.481 279.894 192.78 276.427 186.769C262.21 202.183 248.028 217.88 233.277 232.775C229.013 237.081 225.952 237.92 219.958 237.962C218.719 240.753 217.441 243.262 215.219 245.416C209.82 250.645 202.736 250.422 195.741 250.36L195.743 258.071C204.248 258.011 213.821 257.173 222.212 258.473C229.337 259.566 235.718 263.49 239.908 269.356C244.098 275.252 245.736 282.588 244.451 289.707C242.998 297.834 238.377 303.918 231.778 308.614C225.811 311.618 221.456 312.438 214.876 312.596C189.29 313.209 163.547 312.658 137.945 312.649C124.895 312.644 103.43 313.915 91.5176 311.65C86.6253 310.72 82.2119 308.093 78.6575 304.633C73.2715 299.391 69.9778 292.003 69.9917 284.456C70.0385 277.406 72.9061 270.669 77.9547 265.75C86.9251 256.961 98.7854 257.938 110.326 258.066L110.313 250.33C105.104 250.442 97.7898 251 93.6546 247.123C88.7176 242.493 88.954 234.715 88.954 228.509C88.954 216.698 88.5879 205.093 97.6929 196.153C106.665 187.343 117.506 188.049 129.146 188.093L148.043 188.131C148.049 179.402 146.289 165.544 149.751 157.582C151.531 153.485 155.378 149.656 159.578 148.085C164.772 146.144 199.206 146.616 206.254 147.29C208.324 147.488 210.181 147.816 212.082 148.689C212.898 149.92 213.188 150.544 213.179 152.033C212.102 154.007 209.304 154.647 207.284 155.402C207.081 155.732 206.774 156.016 206.676 156.391C206.475 157.165 208.921 163.377 209.257 164.619C212.465 176.464 215.274 188.479 218.1 200.421C230.61 188.448 244.4 177.442 257.529 166.142C264.283 160.329 273.651 150.952 281.003 146.489Z" fill="#080807"/>
<path d="M96.9306 265.968C122.862 265.389 148.904 265.972 174.848 265.925L203.362 265.867C209.065 265.86 215.002 265.522 220.664 266.262C224.189 266.722 227.342 267.991 230.115 270.239C234.116 273.482 236.638 278.203 237.111 283.333C237.538 288.468 235.387 294.26 232.043 298.127C228.303 302.451 223.434 304.281 217.855 304.712C190.862 305.011 163.831 304.717 136.834 304.718C124.467 304.719 106.488 305.822 94.7483 304.294C91.1409 303.825 88.4148 302.695 85.5869 300.395C81.2453 296.829 78.4878 291.691 77.9147 286.101C77.4678 281.318 78.7792 276.714 81.8832 273.023C85.872 268.28 90.9255 266.42 96.9306 265.968Z" fill="#FEFEFE"/>
<path d="M127.72 276.806C137.295 276.593 182.594 275.781 188.322 277.356C190.347 277.912 191.968 279.396 192.974 281.209C194.321 283.636 194.632 286.806 193.756 289.443C192.6 292.922 190.02 294.547 186.946 296.073C177.571 296.621 131.909 297.339 125.585 294.977C123.497 294.196 121.795 292.086 120.929 290.093C119.928 287.79 120.017 285.264 120.945 282.957C122.259 279.691 124.589 278.114 127.72 276.806Z" fill="#080807"/>
<path d="M128.662 284.691C135.954 284.698 182.029 283.761 185.296 285.08C186.121 285.413 185.982 285.63 186.288 286.408L185.433 288.362C179.144 288.886 131.38 289.274 128.743 287.807C128.141 286.431 128.357 286.121 128.662 284.691Z" fill="#FEFEFE"/>
<path d="M92.9229 272.284C100.075 270.229 107.538 274.366 109.586 281.522C111.635 288.678 107.492 296.139 100.336 298.182C93.1893 300.222 85.7409 296.084 83.6952 288.937C81.6489 281.79 85.7792 274.337 92.9229 272.284Z" fill="#080807"/>
<path d="M95.2878 279.654C98.3472 278.889 101.452 280.727 102.254 283.776C103.057 286.827 101.259 289.955 98.2196 290.796C96.2193 291.349 94.0767 290.783 92.6105 289.315C91.1435 287.847 90.5795 285.704 91.1338 283.704C91.688 281.704 93.2749 280.157 95.2878 279.654Z" fill="#FEFEFE"/>
<path d="M214.457 272.275C219.115 270.921 224.142 272.178 227.615 275.565C231.088 278.953 232.472 283.948 231.235 288.64C230 293.332 226.336 296.997 221.644 298.233C214.518 300.111 207.204 295.909 205.238 288.804C203.27 281.699 207.379 274.332 214.457 272.275Z" fill="#080807"/>
<path d="M216.797 279.636C219.799 278.876 222.864 280.623 223.741 283.593C224.617 286.563 222.991 289.695 220.057 290.686C218.056 291.362 215.845 290.889 214.296 289.453C212.746 288.017 212.106 285.848 212.628 283.801C213.15 281.753 214.749 280.155 216.797 279.636Z" fill="#FEFEFE"/>
<path d="M115.95 195.857C126.542 195.635 137.192 195.886 147.791 195.906C148.457 199.537 149.051 203.03 151.789 205.739C155.675 209.585 161.292 209.144 166.318 209.043C166.21 214.43 165.29 221.445 168.151 226.261C173.558 235.361 201.677 228.325 211.182 231.005C212.175 231.949 212.118 232.701 212.137 234.054C212.165 236.04 211.958 237.68 210.466 239.122C208.694 240.833 205.915 241.728 203.538 242.151C198.402 243.065 192.761 242.629 187.551 242.62L160.758 242.539C143.237 242.566 125.696 242.758 108.177 242.569C105.452 242.539 100.255 242.885 98.379 240.605C96.0677 237.796 96.8856 231.635 96.9406 228.179C103.11 228.207 122.08 229.223 126.911 227.852C128.059 227.526 129.121 226.439 129.586 225.346C130.102 224.129 129.86 223.632 129.296 222.515C124.529 218.587 103.874 220.285 96.9106 220.35C96.9392 214.466 97.4524 208.865 101.068 203.98C104.673 199.11 110.104 196.738 115.95 195.857Z" fill="#FEFEFE"/>
<path d="M173.916 154.956C179.318 154.972 192.493 153.677 196.632 156.569C198.651 157.98 200 160.653 200.877 162.894C202.513 167.077 203.342 171.835 204.407 176.208C206.418 184.364 208.359 192.538 210.231 200.727C198.17 201.139 185.995 200.82 173.922 200.841C174.113 185.554 173.938 170.245 173.916 154.956Z" fill="#FEFEFE"/>
<path d="M265.658 169.36C268.409 171.101 271.066 176.599 272.895 179.363C257.265 196.122 241.526 212.779 225.68 229.335C225.436 229.483 225.21 229.633 224.949 229.747C223.44 230.402 222.111 230.526 220.623 229.909C218.785 226.773 219.568 217.95 219.759 214.252C219.89 211.713 220.561 209.491 222.133 207.473C226.591 201.747 233.743 196.809 239.319 192.071C248.147 184.557 256.927 176.986 265.658 169.36Z" fill="#FEFEFE"/>
<path d="M303.61 249.507C307.003 252.768 310.769 256.027 313.685 259.728C315.973 262.632 317.301 265.645 316.804 269.396C316.033 275.196 311.317 280.35 306.79 283.681C301.059 287.9 295.808 289.208 288.847 288.103C284.04 287.197 279.303 285.955 274.559 284.772L303.61 249.507Z" fill="#FEFEFE"/>
<path d="M117.93 250.418L188.117 250.451L188.138 258.073C164.754 257.744 141.325 258.042 117.936 258.041L117.93 250.418Z" fill="#FEFEFE"/>
<path d="M173.92 208.893C186.638 209.039 199.373 208.884 212.092 208.862L212.101 222.942C206.273 222.96 177.351 224.195 174.363 221.464C173.354 217.61 173.885 212.883 173.92 208.893Z" fill="#FEFEFE"/>
<path d="M163.508 154.765C164.616 154.802 165.222 154.814 166.14 155.53C166.816 160.353 166.321 165.656 166.315 170.548L166.298 200.833L158.206 200.825C157.669 200.58 157.133 200.144 156.635 199.818C154.689 195.918 154.922 165.837 156.488 161.257C157.549 158.155 160.724 156.135 163.508 154.765Z" fill="#FEFEFE"/>
<path d="M289.472 173.019C291.833 175.598 307.547 222.499 310.22 230.008C309.018 231.081 307.791 232.059 306.489 233.008L305.712 232.646C300.192 219.823 285.141 192.098 283.037 180.48L289.472 173.019Z" fill="#FEFEFE"/>
<path d="M283.088 154.425C284.418 155.199 285.884 156.016 287.086 156.973C288.001 157.701 288.59 158.703 288.694 159.88C289.078 164.2 281.455 170.635 278.675 173.683C276.356 170.557 274.208 167.272 272.001 164.064C275.467 160.66 279.392 157.586 283.088 154.425Z" fill="#FEFEFE"/>
<path d="M313.838 236.815C314.33 237.156 314.6 237.372 314.973 237.83C317.007 240.333 317.859 245.196 317.43 248.356C317.262 249.603 317.117 250.195 316.105 250.894L314.576 249.737C312.261 247.52 310.115 245.155 307.95 242.794C309.761 240.678 311.85 238.765 313.838 236.815Z" fill="#FEFEFE"/>
<path d="M82.514 100.124C84.1134 95.4921 84.3163 89.7287 86.6827 85.4781C87.4817 84.044 88.4871 83.573 90.0112 83.1149C95.1016 81.585 107.854 81.4489 112.577 83.8533C115.856 87.4587 116.771 95.3217 117.912 100.097C123.149 100.723 127.254 102.344 131.959 104.573C136.775 100.572 141.686 95.9167 147.163 92.8868C151.258 95.3938 163.81 104.232 165.406 108.348C167.337 113.328 162.496 122.018 160.531 126.803C164.712 131.282 167.296 135.586 169.794 141.117L161.028 141.089C156.006 141.45 151.062 142.897 147.672 146.844C145.824 148.995 145.057 151.488 144.361 154.185C143.135 158.452 142.579 162.792 142.185 167.206C137.527 155.157 129.96 145.462 117.894 140.157C107.287 135.494 95.248 135.311 84.5039 139.647C73.3526 144.083 64.4519 152.817 59.805 163.884C55.0953 175.209 55.3839 188.792 60.2051 200.043C64.5628 210.215 72.0802 216.982 81.775 221.974L81.745 230.194C82.1821 237.886 83.6421 245.306 87.0954 252.257L79.6931 255.403C77.1217 256.765 74.793 258.584 72.4371 260.285L67.7414 257.73C64.0148 260.876 60.3181 264.833 56.1787 267.383C55.1845 267.996 54.396 268.466 53.2393 268.173C49.4171 267.206 36.0522 257.321 34.3893 253.934C32.7599 250.613 38.0455 240.066 39.5076 236.458C36.1853 232.905 34.0079 229.219 31.8619 224.903C26.768 224.862 18.262 226.404 13.6966 224.179C10.1115 219.413 6.34791 206.05 6 199.962C7.12461 196.414 17.3207 190.994 20.5391 188.858C19.7373 184.259 20.0015 179.432 20.3453 174.799C15.8287 171.996 8.6843 168.241 6.05021 163.568C5.7023 157.895 10.3485 144.326 13.608 139.569C16.7211 137.443 27.4269 138.722 31.4352 138.732C33.7095 134.117 36.4356 130.419 39.792 126.569C37.7757 122.336 34.4966 116.071 33.8294 111.482C33.5589 109.623 34.1404 108.812 35.2998 107.45C37.7687 104.552 50.8575 93.8026 54.488 93.7834C57.6045 93.7669 66.043 102.353 68.5529 104.515C73.179 102.319 77.3895 100.822 82.514 100.124Z" fill="#FFD026"/>
<path d="M82.514 100.124C84.1134 95.4921 84.3163 89.7287 86.6827 85.4781C87.4817 84.044 88.4871 83.573 90.0112 83.1149C95.1016 81.585 107.854 81.4489 112.577 83.8533C115.856 87.4587 116.771 95.3217 117.912 100.097C123.149 100.723 127.254 102.344 131.959 104.573C136.775 100.572 141.686 95.9167 147.163 92.8868C151.258 95.3938 163.81 104.232 165.406 108.348C167.337 113.328 162.496 122.018 160.531 126.803C164.712 131.282 167.296 135.586 169.794 141.117L161.028 141.089L160.813 140.546C157.703 132.894 150.337 130.448 153.951 121.567C155.382 118.145 156.844 114.735 158.335 111.338C154.493 108.345 150.544 105.425 146.834 102.273C143.919 104.639 136.354 112.398 132.633 112.161C128.68 111.91 124.538 109.696 120.705 108.667C118.667 108.121 116.441 108.014 114.451 107.367C113.615 107.096 112.725 106.512 112.163 105.83C109.157 102.186 108.702 94.619 107.162 90.0761L93.2358 90.0391C92.1426 94.4228 91.0884 102.825 88.1594 106.121C82.1019 108.521 72.944 111.857 66.5178 112.531C61.9398 110.104 57.6603 105.637 53.6311 102.321C49.841 105.446 46.0279 108.497 42.0845 111.426C43.1087 113.957 48.4835 124.867 47.6783 126.831C46.4017 129.944 37.2144 144.246 34.9401 145.975C29.7089 147.227 23.6926 146.342 18.3191 146.358L13.8723 160.861C18.4188 164.063 24.0238 166.949 28.0272 170.723C27.8459 178.006 27.7971 185.119 28.3758 192.386C24.106 196.478 18.7437 199.544 13.9531 203.001L18.3017 217.111C24.0781 217.09 30.038 216.763 35.7914 217.172C37.7868 220.289 45.4709 230.773 46.4344 233.173C47.1414 234.936 47.2223 236.739 46.8388 238.586C45.9436 242.898 43.6651 247.243 41.9339 251.28C45.6898 254.157 49.5335 256.97 53.104 260.074C57.1032 256.504 62.9452 249.735 68.6136 250.112C72.5333 250.373 76.4656 253.356 79.6931 255.403C77.1217 256.765 74.793 258.584 72.4371 260.285L67.7414 257.73C64.0148 260.876 60.3181 264.833 56.1787 267.383C55.1845 267.996 54.396 268.466 53.2393 268.173C49.4171 267.206 36.0522 257.321 34.3893 253.934C32.7599 250.613 38.0455 240.066 39.5076 236.458C36.1853 232.905 34.0079 229.219 31.8619 224.903C26.768 224.862 18.262 226.404 13.6966 224.179C10.1115 219.413 6.34791 206.05 6 199.962C7.12461 196.414 17.3207 190.994 20.5391 188.858C19.7373 184.259 20.0015 179.432 20.3453 174.799C15.8287 171.996 8.6843 168.241 6.05021 163.568C5.7023 157.895 10.3485 144.326 13.608 139.569C16.7211 137.443 27.4269 138.722 31.4352 138.732C33.7095 134.117 36.4356 130.419 39.792 126.569C37.7757 122.336 34.4966 116.071 33.8294 111.482C33.5589 109.623 34.1404 108.812 35.2998 107.45C37.7687 104.552 50.8575 93.8026 54.488 93.7834C57.6045 93.7669 66.043 102.353 68.5529 104.515C73.179 102.319 77.3895 100.822 82.514 100.124Z" fill="#080807"/>
<path d="M81.7451 230.194C70.6664 225.548 62.0453 218.904 55.939 208.363C48.7535 195.836 46.8543 180.961 50.6604 167.029C54.4909 153.392 63.6552 141.874 76.0824 135.079C88.1505 128.468 102.169 127.385 115.29 131.19C127.332 134.682 138.294 143.147 144.361 154.185C143.135 158.452 142.579 162.792 142.186 167.206C137.527 155.156 129.961 145.462 117.894 140.157C107.287 135.494 95.2482 135.311 84.504 139.647C73.3527 144.083 64.4521 152.817 59.8051 163.884C55.0954 175.209 55.3841 188.792 60.2053 200.043C64.5629 210.215 72.0803 216.982 81.7751 221.974L81.7451 230.194Z" fill="#080807"/>
</svg>

<svg xmlns="http://www.w3.org/2000/svg" width="330" height="330" fill="none" viewBox="0 0 330 330"><path fill="#080807" d="M281.003 146.489c1.457-.032 2.879-.039 4.287.389 4.311 1.306 8.178 4.081 10.259 8.138 2.01 3.92 1.718 7.118.415 11.207 2.87 9.995 6.723 19.782 10.223 29.574 3.829 10.715 7.434 21.6 11.583 32.19 1.602 4.09 5.388 6.787 6.524 11.181 1.999 7.735-1.265 13.418-.965 20.623.13 3.13 1.953 5.914 1.537 9.174-.462 3.618-2.146 7.454-4.017 10.553-4.593 7.607-12.652 14.153-21.362 16.284-2.996.733-6.048.87-9.113.585-4.404-.41-25.461-4.685-28.82-6.939-1.347-.903-2.271-2.029-2.607-3.613.259-.64.372-1.24.92-1.68 2.075-1.667 3.258-2.062 5.845-1.738l.545.072a5252 5252 0 0 1 34.756-41.775c-5.207-11.705-10.791-23.244-16.071-34.917-2.857-6.316-5.048-13.017-8.515-19.028-14.217 15.414-28.399 31.111-43.15 46.006-4.264 4.306-7.325 5.145-13.319 5.187-1.239 2.791-2.517 5.3-4.739 7.454-5.399 5.229-12.483 5.006-19.478 4.944l.002 7.711c8.505-.06 18.078-.898 26.469.402a26.73 26.73 0 0 1 17.696 10.883 26.9 26.9 0 0 1 4.543 20.351c-1.453 8.127-6.074 14.211-12.673 18.907-5.967 3.004-10.322 3.824-16.902 3.982-25.586.613-51.329.062-76.931.053-13.05-.005-34.515 1.266-46.427-.999-4.893-.93-9.306-3.557-12.86-7.017-5.386-5.242-8.68-12.63-8.666-20.177a26.36 26.36 0 0 1 7.963-18.706c8.97-8.789 20.83-7.812 32.371-7.684l-.013-7.736c-5.209.112-12.523.67-16.658-3.207-4.937-4.63-4.701-12.408-4.701-18.614 0-11.811-.366-23.416 8.739-32.356 8.972-8.81 19.813-8.104 31.453-8.06l18.897.038c.006-8.729-1.754-22.587 1.708-30.549 1.78-4.097 5.627-7.926 9.827-9.497 5.194-1.941 39.628-1.469 46.676-.795 2.07.198 3.927.526 5.828 1.399.816 1.231 1.106 1.855 1.097 3.344-1.077 1.974-3.875 2.614-5.895 3.369-.203.33-.51.614-.608.989-.201.774 2.245 6.986 2.581 8.228 3.208 11.845 6.017 23.86 8.843 35.802 12.51-11.973 26.3-22.979 39.429-34.279 6.754-5.813 16.122-15.19 23.474-19.653"/><path fill="#fefefe" d="M96.93 265.968c25.932-.579 51.974.004 77.918-.043l28.514-.058c5.703-.007 11.64-.345 17.302.395 3.525.46 6.678 1.729 9.451 3.977a19.1 19.1 0 0 1 6.996 13.094c.427 5.135-1.724 10.927-5.068 14.794-3.74 4.324-8.609 6.154-14.188 6.585-26.993.299-54.024.005-81.021.006-12.367.001-30.346 1.104-42.086-.424-3.607-.469-6.333-1.599-9.161-3.899a21.3 21.3 0 0 1-7.672-14.294c-.447-4.783.864-9.387 3.968-13.078 3.989-4.743 9.043-6.603 15.048-7.055"/><path fill="#080807" d="M127.72 276.806c9.575-.213 54.874-1.025 60.602.55 2.025.556 3.646 2.04 4.652 3.853 1.347 2.427 1.658 5.597.782 8.234-1.156 3.479-3.736 5.104-6.81 6.63-9.375.548-55.037 1.266-61.361-1.096-2.088-.781-3.79-2.891-4.656-4.884-1.001-2.303-.912-4.829.016-7.136 1.314-3.266 3.644-4.843 6.775-6.151"/><path fill="#fefefe" d="M128.662 284.691c7.292.007 53.367-.93 56.634.389.825.333.686.55.992 1.328l-.855 1.954c-6.289.524-54.053.912-56.69-.555-.602-1.376-.386-1.686-.081-3.116"/><path fill="#080807" d="M92.923 272.284c7.152-2.055 14.615 2.082 16.663 9.238s-2.094 14.617-9.25 16.66c-7.147 2.04-14.595-2.098-16.64-9.245-2.047-7.147 2.083-14.6 9.227-16.653"/><path fill="#fefefe" d="M95.288 279.654a5.761 5.761 0 1 1 2.79 11.18 5.761 5.761 0 0 1-2.79-11.18"/><path fill="#080807" d="M214.457 272.275a13.464 13.464 0 0 1 16.778 16.365 13.47 13.47 0 0 1-9.591 9.593c-7.126 1.878-14.44-2.324-16.406-9.429-1.968-7.105 2.141-14.472 9.219-16.529"/><path fill="#fefefe" d="M216.797 279.636a5.765 5.765 0 1 1 2.83 11.177 5.765 5.765 0 0 1-2.83-11.177M115.95 195.857c10.592-.222 21.242.029 31.841.049.666 3.631 1.26 7.124 3.998 9.833 3.886 3.846 9.503 3.405 14.529 3.304-.108 5.387-1.028 12.402 1.833 17.218 5.407 9.1 33.526 2.064 43.031 4.744.993.944.936 1.696.955 3.049.028 1.986-.179 3.626-1.671 5.068-1.772 1.711-4.551 2.606-6.928 3.029-5.136.914-10.777.478-15.987.469l-26.793-.081c-17.521.027-35.062.219-52.581.03-2.725-.03-7.922.316-9.798-1.964-2.311-2.809-1.493-8.97-1.438-12.426 6.169.028 25.139 1.044 29.97-.327 1.148-.326 2.21-1.413 2.675-2.506.516-1.217.274-1.714-.29-2.831-4.767-3.928-25.422-2.23-32.385-2.165.028-5.884.541-11.485 4.157-16.37 3.605-4.87 9.036-7.242 14.882-8.123m57.966-40.901c5.402.016 18.577-1.279 22.716 1.613 2.019 1.411 3.368 4.084 4.245 6.325 1.636 4.183 2.465 8.941 3.53 13.314a1482 1482 0 0 1 5.824 24.519c-12.061.412-24.236.093-36.309.114.191-15.287.016-30.596-.006-45.885m91.742 14.404c2.751 1.741 5.408 7.239 7.237 10.003a5315 5315 0 0 1-47.215 49.972c-.244.148-.47.298-.731.412-1.509.655-2.838.779-4.326.162-1.838-3.136-1.055-11.959-.864-15.657.131-2.539.802-4.761 2.374-6.779 4.458-5.726 11.61-10.664 17.186-15.402a2721 2721 0 0 0 26.339-22.711m37.952 80.147c3.393 3.261 7.159 6.52 10.075 10.221 2.288 2.904 3.616 5.917 3.119 9.668-.771 5.8-5.487 10.954-10.014 14.285-5.731 4.219-10.982 5.527-17.943 4.422-4.807-.906-9.544-2.148-14.288-3.331zm-185.68.911 70.187.033.021 7.622c-23.384-.329-46.813-.031-70.202-.032z"/><path fill="#fefefe" d="M173.92 208.893c12.718.146 25.453-.009 38.172-.031l.009 14.08c-5.828.018-34.75 1.253-37.738-1.478-1.009-3.854-.478-8.581-.443-12.571m-10.412-54.128c1.108.037 1.714.049 2.632.765.676 4.823.181 10.126.175 15.018l-.017 30.285-8.092-.008c-.537-.245-1.073-.681-1.571-1.007-1.946-3.9-1.713-33.981-.147-38.561 1.061-3.102 4.236-5.122 7.02-6.492m125.964 18.254c2.361 2.579 18.075 49.48 20.748 56.989a48 48 0 0 1-3.731 3l-.777-.362c-5.52-12.823-20.571-40.548-22.675-52.166zm-6.384-18.594c1.33.774 2.796 1.591 3.998 2.548.915.728 1.504 1.73 1.608 2.907.384 4.32-7.239 10.755-10.019 13.803-2.319-3.126-4.467-6.411-6.674-9.619 3.466-3.404 7.391-6.478 11.087-9.639m30.75 82.39c.492.341.762.557 1.135 1.015 2.034 2.503 2.886 7.366 2.457 10.526-.168 1.247-.313 1.839-1.325 2.538l-1.529-1.157c-2.315-2.217-4.461-4.582-6.626-6.943 1.811-2.116 3.9-4.029 5.888-5.979"/><path fill="#ffd026" d="M82.514 100.124c1.6-4.632 1.802-10.395 4.169-14.646.799-1.434 1.804-1.905 3.328-2.363 5.09-1.53 17.843-1.666 22.566.738 3.279 3.606 4.194 11.469 5.335 16.244 5.237.626 9.342 2.247 14.047 4.476 4.816-4.001 9.727-8.656 15.204-11.686 4.095 2.507 16.647 11.345 18.243 15.461 1.931 4.98-2.91 13.67-4.875 18.455 4.181 4.479 6.765 8.783 9.263 14.314l-8.766-.028c-5.022.361-9.966 1.808-13.356 5.755-1.848 2.151-2.615 4.644-3.311 7.341-1.226 4.267-1.782 8.607-2.176 13.021-4.658-12.049-12.225-21.744-24.291-27.049a43 43 0 0 0-33.39-.51 44.7 44.7 0 0 0-24.699 24.237c-4.71 11.325-4.421 24.908.4 36.159 4.358 10.172 11.875 16.939 21.57 21.931l-.03 8.22c.437 7.692 1.897 15.112 5.35 22.063l-7.402 3.146c-2.571 1.362-4.9 3.181-7.256 4.882l-4.696-2.555c-3.726 3.146-7.423 7.103-11.562 9.653-.995.613-1.783 1.083-2.94.79-3.822-.967-17.187-10.852-18.85-14.239-1.63-3.321 3.656-13.868 5.119-17.476-3.323-3.553-5.5-7.239-7.646-11.555-5.094-.041-13.6 1.501-18.165-.724-3.585-4.766-7.35-18.129-7.697-24.217 1.125-3.548 11.32-8.968 14.54-11.104-.803-4.599-.538-9.426-.195-14.059-4.516-2.803-11.66-6.558-14.295-11.231-.348-5.673 4.299-19.242 7.558-23.999 3.113-2.126 13.819-.847 17.827-.837 2.274-4.615 5-8.313 8.357-12.163-2.016-4.233-5.295-10.498-5.963-15.087-.27-1.859.311-2.67 1.47-4.032 2.47-2.898 15.559-13.647 19.189-13.667 3.117-.016 11.555 8.57 14.065 10.732 4.626-2.196 8.837-3.693 13.961-4.391"/><path fill="#080807" d="M82.514 100.124c1.6-4.632 1.802-10.395 4.169-14.646.799-1.434 1.804-1.905 3.328-2.363 5.09-1.53 17.843-1.666 22.566.738 3.279 3.606 4.194 11.469 5.335 16.244 5.237.626 9.342 2.247 14.047 4.476 4.816-4.001 9.727-8.656 15.204-11.686 4.095 2.507 16.647 11.345 18.243 15.461 1.931 4.98-2.91 13.67-4.875 18.455 4.181 4.479 6.765 8.783 9.263 14.314l-8.766-.028-.215-.543c-3.11-7.652-10.476-10.098-6.862-18.979a635 635 0 0 1 4.384-10.229c-3.842-2.993-7.791-5.913-11.501-9.065-2.915 2.366-10.48 10.125-14.201 9.888-3.953-.251-8.095-2.465-11.928-3.494-2.038-.546-4.264-.653-6.254-1.3-.836-.271-1.726-.855-2.288-1.537-3.006-3.644-3.461-11.211-5.001-15.754l-13.926-.037c-1.093 4.384-2.148 12.786-5.077 16.082-6.057 2.4-15.215 5.736-21.641 6.41-4.578-2.427-8.858-6.894-12.887-10.21-3.79 3.125-7.603 6.176-11.547 9.105 1.025 2.531 6.4 13.441 5.594 15.405-1.276 3.113-10.464 17.415-12.738 19.144-5.231 1.252-11.247.367-16.62.383l-4.448 14.503c4.547 3.202 10.152 6.088 14.155 9.862-.181 7.283-.23 14.396.349 21.663-4.27 4.092-9.632 7.158-14.423 10.615l4.349 14.11c5.776-.021 11.736-.348 17.49.061 1.995 3.117 9.679 13.601 10.642 16.001.707 1.763.788 3.566.405 5.413-.895 4.312-3.174 8.657-4.905 12.694 3.756 2.877 7.6 5.69 11.17 8.794 4-3.57 9.841-10.339 15.51-9.962 3.92.261 7.852 3.244 11.08 5.291-2.572 1.362-4.901 3.181-7.257 4.882l-4.696-2.555c-3.726 3.146-7.423 7.103-11.562 9.653-.995.613-1.783 1.083-2.94.79-3.822-.967-17.187-10.852-18.85-14.239-1.63-3.321 3.656-13.868 5.119-17.476-3.323-3.553-5.5-7.239-7.646-11.555-5.094-.041-13.6 1.501-18.165-.724-3.585-4.766-7.35-18.129-7.697-24.217 1.125-3.548 11.32-8.968 14.54-11.104-.803-4.599-.538-9.426-.195-14.059-4.516-2.803-11.66-6.558-14.295-11.231-.348-5.673 4.299-19.242 7.558-23.999 3.113-2.126 13.819-.847 17.827-.837 2.274-4.615 5-8.313 8.357-12.163-2.016-4.233-5.295-10.498-5.963-15.087-.27-1.859.311-2.67 1.47-4.032 2.47-2.898 15.559-13.647 19.189-13.667 3.117-.016 11.555 8.57 14.065 10.732 4.626-2.196 8.837-3.693 13.961-4.391"/><path fill="#080807" d="M81.745 230.194c-11.079-4.646-19.7-11.29-25.806-21.831a54.3 54.3 0 0 1-5.279-41.334 52.64 52.64 0 0 1 25.422-31.95c12.069-6.611 26.087-7.694 39.208-3.889 12.042 3.492 23.004 11.957 29.071 22.995-1.226 4.267-1.782 8.607-2.175 13.021-4.659-12.05-12.225-21.744-24.292-27.049a43 43 0 0 0-33.39-.51 44.72 44.72 0 0 0-24.699 24.237c-4.71 11.325-4.42 24.908.4 36.159 4.358 10.172 11.875 16.939 21.57 21.931z"/></svg>
